X: 35
T: The Saint Lawrence Jig
O: Qu\'ebec
R: jig
Z: John Chambers <jc@eddie.mit.edu> http://eddie.mit.edu/~jc/music/
M: 6/8
L: 1/8
K: D
A |: "D"A>BA FAd | f2d A2d | "A7"c2B G2B | "D"B2A "(A7)"F2G \
| "D"A>BA FAd | f2d A2d | "A7"c>ec ABc | "D"d3- dz2 :|
f/g/ \
|: "G"a2g B2g | "D"g2f A2d | "A7"c>de ABc | "D"d>cB A2f/g/ \
| "G"a2g B2g | "D"g2f A2d | "A7"d2c cBc | "D"d3- dz2 :|
